Newaita-dark/.LP/16/weather-few-clouds.svg

<svg xmlns="http://www.w3.org/2000/svg" xmlns:xlink="http://www.w3.org/1999/xlink" width="16px" height="16px" viewBox="0 0 16 16" version="1.1">
<defs>
<linearGradient id="linear0" gradientUnits="userSpaceOnUse" x1="254" y1="233.5" x2="254" y2="254.666672" gradientTransform="matrix(0.031253,0,0,0.031253,-0.000000000000007106,6.554011)">
<stop offset="0" style="stop-color:rgb(0%,0%,0%);stop-opacity:0.27451;"/>
<stop offset="1" style="stop-color:rgb(0%,0%,0%);stop-opacity:0;"/>
</linearGradient>
<radialGradient id="radial0" gradientUnits="userSpaceOnUse" cx="450.908936" cy="189.579361" fx="450.908936" fy="189.579361" r="21.166656" gradientTransform="matrix(0.0000000870853,-0.0390662,-0.0703192,-0.0000000507694,24.576899,31.632286)">
<stop offset="0" style="stop-color:rgb(0%,0%,0%);stop-opacity:0.313725;"/>
<stop offset="0.222222" style="stop-color:rgb(0%,0%,0%);stop-opacity:0.27451;"/>
<stop offset="1" style="stop-color:rgb(0%,0%,0%);stop-opacity:0;"/>
</radialGradient>
<radialGradient id="radial1" gradientUnits="userSpaceOnUse" cx="450.908936" cy="189.579361" fx="450.908936" fy="189.579361" r="21.166656" gradientTransform="matrix(-0.0000000870853,0.0390662,0.0703192,0.0000000507694,-9.85805,-3.929121)">
<stop offset="0" style="stop-color:rgb(0%,0%,0%);stop-opacity:0.313725;"/>
<stop offset="0.222222" style="stop-color:rgb(0%,0%,0%);stop-opacity:0.27451;"/>
<stop offset="1" style="stop-color:rgb(0%,0%,0%);stop-opacity:0;"/>
</radialGradient>
<radialGradient id="radial2" gradientUnits="userSpaceOnUse" cx="450.908936" cy="189.579361" fx="450.908936" fy="189.579361" r="21.166656" gradientTransform="matrix(-0.0000000870853,-0.0390662,0.0703192,-0.0000000507694,-9.85805,31.632286)">
<stop offset="0" style="stop-color:rgb(0%,0%,0%);stop-opacity:0.313725;"/>
<stop offset="0.222222" style="stop-color:rgb(0%,0%,0%);stop-opacity:0.27451;"/>
<stop offset="1" style="stop-color:rgb(0%,0%,0%);stop-opacity:0;"/>
</radialGradient>
<radialGradient id="radial3" gradientUnits="userSpaceOnUse" cx="450.908936" cy="189.579361" fx="450.908936" fy="189.579361" r="21.166656" gradientTransform="matrix(0.0000000870853,0.0390662,-0.0703192,0.0000000507694,24.576899,-3.929121)">
<stop offset="0" style="stop-color:rgb(0%,0%,0%);stop-opacity:0.313725;"/>
<stop offset="0.222222" style="stop-color:rgb(0%,0%,0%);stop-opacity:0.27451;"/>
<stop offset="1" style="stop-color:rgb(0%,0%,0%);stop-opacity:0;"/>
</radialGradient>
<linearGradient id="linear1" gradientUnits="userSpaceOnUse" x1="211.666672" y1="170" x2="211.666672" y2="-126.333344" gradientTransform="matrix(0.031253,0,0,0.031253,0,5.396348)">
<stop offset="0" style="stop-color:rgb(97.647059%,65.882353%,14.509804%);stop-opacity:1;"/>
<stop offset="1" style="stop-color:rgb(98.431373%,75.294118%,17.647059%);stop-opacity:1;"/>
</linearGradient>
<linearGradient id="linear2" gradientUnits="userSpaceOnUse" x1="960" y1="1695.118164" x2="960" y2="815.118103" gradientTransform="matrix(0.00826903,0,0,0.00826903,0,0)">
<stop offset="0" style="stop-color:rgb(39.215686%,70.980392%,96.470588%);stop-opacity:1;"/>
<stop offset="1" style="stop-color:rgb(56.470588%,79.215686%,97.647059%);stop-opacity:1;"/>
</linearGradient>
</defs>
<g id="surface1">
<path style=" stroke:none;fill-rule:nonzero;fill:url(#linear0);" d="M 3.308594 13.851562 L 11.410156 13.851562 L 11.410156 14.511719 L 3.308594 14.511719 Z M 3.308594 13.851562 "/>
<path style=" stroke:none;fill-rule:nonzero;fill:url(#radial0);" d="M 11.410156 13.851562 L 12.734375 13.851562 L 12.734375 13.191406 L 11.410156 13.191406 Z M 11.410156 13.851562 "/>
<path style=" stroke:none;fill-rule:nonzero;fill:url(#radial1);" d="M 3.308594 13.851562 L 1.984375 13.851562 L 1.984375 14.511719 L 3.308594 14.511719 Z M 3.308594 13.851562 "/>
<path style=" stroke:none;fill-rule:nonzero;fill:url(#radial2);" d="M 3.308594 13.851562 L 1.984375 13.851562 L 1.984375 13.191406 L 3.308594 13.191406 Z M 3.308594 13.851562 "/>
<path style=" stroke:none;fill-rule:nonzero;fill:url(#radial3);" d="M 11.410156 13.851562 L 12.734375 13.851562 L 12.734375 14.511719 L 11.410156 14.511719 Z M 11.410156 13.851562 "/>
<path style=" stroke:none;fill-rule:nonzero;fill:url(#linear1);" d="M 6.617188 1.449219 C 9.171875 1.449219 11.246094 3.519531 11.246094 6.078125 C 11.246094 8.636719 9.171875 10.710938 6.617188 10.710938 C 4.058594 10.710938 1.984375 8.636719 1.984375 6.078125 C 1.984375 3.519531 4.058594 1.449219 6.617188 1.449219 Z M 6.617188 1.449219 "/>
<path style=" stroke:none;fill-rule:nonzero;fill:rgb(100%,100%,100%);fill-opacity:0.392157;" d="M 6.617188 1.449219 C 4.050781 1.449219 1.984375 3.511719 1.984375 6.078125 C 1.984375 6.105469 1.984375 6.132812 1.984375 6.160156 C 2.027344 3.632812 4.078125 1.613281 6.617188 1.613281 C 9.152344 1.613281 11.203125 3.632812 11.246094 6.160156 C 11.246094 6.132812 11.246094 6.105469 11.246094 6.078125 C 11.246094 3.511719 9.179688 1.449219 6.617188 1.449219 Z M 6.617188 1.449219 "/>
<path style=" stroke:none;fill-rule:nonzero;fill:rgb(12.941177%,12.941177%,12.941177%);fill-opacity:1;" d="M 6.617188 1.402344 C 4.023438 1.402344 1.9375 3.488281 1.9375 6.078125 C 1.9375 8.667969 4.023438 10.757812 6.617188 10.757812 C 9.207031 10.757812 11.292969 8.667969 11.292969 6.078125 C 11.292969 3.488281 9.207031 1.402344 6.617188 1.402344 Z M 6.617188 1.496094 C 9.15625 1.496094 11.199219 3.539062 11.199219 6.078125 C 11.199219 8.617188 9.15625 10.664062 6.617188 10.664062 C 4.074219 10.664062 2.03125 8.617188 2.03125 6.078125 C 2.03125 3.539062 4.074219 1.496094 6.617188 1.496094 Z M 6.617188 1.496094 "/>
<path style=" stroke:none;fill-rule:nonzero;fill:rgb(0%,0%,0%);fill-opacity:0.196078;" d="M 6.617188 10.710938 C 4.050781 10.710938 1.984375 8.644531 1.984375 6.078125 C 1.984375 6.050781 1.984375 6.023438 1.984375 5.996094 C 2.027344 8.523438 4.078125 10.542969 6.617188 10.542969 C 9.152344 10.542969 11.203125 8.523438 11.246094 5.996094 C 11.246094 6.023438 11.246094 6.050781 11.246094 6.078125 C 11.246094 8.644531 9.179688 10.710938 6.617188 10.710938 Z M 6.617188 10.710938 "/>
<path style=" stroke:none;fill-rule:nonzero;fill:url(#linear2);" d="M 10.914062 6.742188 C 9.460938 6.742188 8.210938 7.585938 7.628906 8.8125 C 7.410156 8.753906 7.183594 8.726562 6.945312 8.726562 C 5.8125 8.726562 4.851562 9.429688 4.472656 10.425781 C 4.144531 10.1875 3.742188 10.046875 3.308594 10.046875 C 2.207031 10.046875 1.324219 10.933594 1.324219 12.03125 C 1.324219 13.132812 2.207031 14.015625 3.308594 14.015625 C 3.390625 14.015625 3.46875 14.011719 3.546875 14.003906 C 3.578125 14.011719 3.605469 14.015625 3.636719 14.015625 L 10.914062 14.015625 C 12.929688 14.015625 14.554688 12.394531 14.554688 10.378906 C 14.554688 8.363281 12.929688 6.742188 10.914062 6.742188 Z M 10.914062 6.742188 "/>
<path style=" stroke:none;fill-rule:nonzero;fill:rgb(100%,100%,100%);fill-opacity:0.392157;" d="M 10.914062 6.742188 C 9.460938 6.742188 8.210938 7.585938 7.628906 8.8125 C 7.410156 8.753906 7.183594 8.726562 6.945312 8.726562 C 5.8125 8.726562 4.851562 9.429688 4.472656 10.425781 C 4.144531 10.1875 3.742188 10.046875 3.308594 10.046875 C 2.207031 10.046875 1.324219 10.933594 1.324219 12.03125 C 1.324219 12.058594 1.324219 12.085938 1.324219 12.113281 C 1.367188 11.054688 2.234375 10.214844 3.308594 10.214844 C 3.742188 10.214844 4.144531 10.351562 4.472656 10.589844 C 4.851562 9.59375 5.8125 8.890625 6.945312 8.890625 C 7.183594 8.890625 7.410156 8.921875 7.628906 8.976562 C 8.210938 7.75 9.460938 6.90625 10.914062 6.90625 C 12.902344 6.90625 14.507812 8.484375 14.550781 10.460938 C 14.554688 10.433594 14.554688 10.40625 14.554688 10.378906 C 14.554688 8.363281 12.929688 6.742188 10.914062 6.742188 Z M 10.914062 6.742188 "/>
<path style=" stroke:none;fill-rule:nonzero;fill:rgb(0%,0%,0%);fill-opacity:0.235294;" d="M 14.550781 10.304688 C 14.511719 12.285156 12.90625 13.867188 10.914062 13.867188 L 3.636719 13.867188 C 3.605469 13.867188 3.578125 13.859375 3.546875 13.851562 C 3.46875 13.859375 3.390625 13.867188 3.308594 13.867188 C 2.234375 13.867188 1.363281 13.019531 1.324219 11.957031 C 1.324219 11.980469 1.324219 12.007812 1.324219 12.03125 C 1.324219 13.132812 2.207031 14.015625 3.308594 14.015625 C 3.390625 14.015625 3.46875 14.011719 3.546875 14.003906 C 3.578125 14.011719 3.605469 14.015625 3.636719 14.015625 L 10.914062 14.015625 C 12.929688 14.015625 14.554688 12.394531 14.554688 10.378906 C 14.554688 10.351562 14.554688 10.328125 14.550781 10.304688 Z M 14.550781 10.304688 "/>
<path style="fill:none;stroke-width:11.338583;stroke-linecap:round;stroke-linejoin:miter;stroke:rgb(12.941177%,12.941177%,12.941177%);stroke-opacity:1;stroke-miterlimit:4;" d="M 1319.871917 815.353947 C 1144.140939 815.353947 992.974506 917.391289 922.587636 1065.723352 C 896.13351 1058.637425 868.734594 1055.330659 839.918493 1055.330659 C 702.923913 1055.330659 586.714718 1140.361778 540.892393 1260.822529 C 501.211204 1232.006428 452.554508 1215.000204 400.118652 1215.000204 C 266.903233 1215.000204 160.14194 1322.233893 160.14194 1454.976916 C 160.14194 1588.192335 266.903233 1694.953629 400.118652 1694.953629 C 410.038949 1694.953629 419.486851 1694.481233 429.407148 1693.536443 C 432.713914 1694.481233 436.02068 1694.953629 439.799841 1694.953629 L 1319.871917 1694.953629 C 1563.62779 1694.953629 1760.144153 1498.909661 1760.144153 1255.153788 C 1760.144153 1011.397915 1563.62779 815.353947 1319.871917 815.353947 Z M 1319.871917 815.353947 " transform="matrix(0.00826903,0,0,0.00826903,0,0)"/>
</g>
</svg>

<svg xmlns="http://www.w3.org/2000/svg" width="16" height="16"><defs><linearGradient id="a" gradientUnits="userSpaceOnUse" x1="254" y1="233.5" x2="254" y2="254.667" gradientTransform="matrix(.03125 0 0 .03125 0 6.554)"><stop offset="0" stop-opacity=".275"/><stop offset="1" stop-opacity="0"/></linearGradient><radialGradient id="b" gradientUnits="userSpaceOnUse" cx="450.909" cy="189.579" fx="450.909" fy="189.579" r="21.167" gradientTransform="matrix(0 -.03907 -.07032 0 24.577 31.632)"><stop offset="0" stop-opacity=".314"/><stop offset=".222" stop-opacity=".275"/><stop offset="1" stop-opacity="0"/></radialGradient><radialGradient id="c" gradientUnits="userSpaceOnUse" cx="450.909" cy="189.579" fx="450.909" fy="189.579" r="21.167" gradientTransform="matrix(0 .03907 .07032 0 -9.858 -3.93)"><stop offset="0" stop-opacity=".314"/><stop offset=".222" stop-opacity=".275"/><stop offset="1" stop-opacity="0"/></radialGradient><radialGradient id="d" gradientUnits="userSpaceOnUse" cx="450.909" cy="189.579" fx="450.909" fy="189.579" r="21.167" gradientTransform="matrix(0 -.03907 .07032 0 -9.858 31.632)"><stop offset="0" stop-opacity=".314"/><stop offset=".222" stop-opacity=".275"/><stop offset="1" stop-opacity="0"/></radialGradient><radialGradient id="e" gradientUnits="userSpaceOnUse" cx="450.909" cy="189.579" fx="450.909" fy="189.579" r="21.167" gradientTransform="matrix(0 .03907 -.07032 0 24.577 -3.93)"><stop offset="0" stop-opacity=".314"/><stop offset=".222" stop-opacity=".275"/><stop offset="1" stop-opacity="0"/></radialGradient><linearGradient id="f" gradientUnits="userSpaceOnUse" x1="211.667" y1="170" x2="211.667" y2="-126.333" gradientTransform="matrix(.03125 0 0 .03125 0 5.396)"><stop offset="0" stop-color="#f9a825"/><stop offset="1" stop-color="#fbc02d"/></linearGradient><linearGradient id="g" gradientUnits="userSpaceOnUse" x1="960" y1="1695.118" x2="960" y2="815.118" gradientTransform="rotate(.878) scale(.00827)"><stop offset="0" stop-color="#64b5f6"/><stop offset="1" stop-color="#90caf9"/></linearGradient></defs><path d="M3.309 13.852h8.101v.66H3.31zm0 0" fill="url(#a)"/><path d="M11.41 13.852h1.324v-.66H11.41zm0 0" fill="url(#b)"/><path d="M3.309 13.852H1.984v.66H3.31zm0 0" fill="url(#c)"/><path d="M3.309 13.852H1.984v-.66H3.31zm0 0" fill="url(#d)"/><path d="M11.41 13.852h1.324v.66H11.41zm0 0" fill="url(#e)"/><path d="M6.617 1.45a4.632 4.632 0 1 1-.006 9.26 4.632 4.632 0 0 1 .006-9.26zm0 0" fill="url(#f)"/><path d="M6.617 1.45a4.62 4.62 0 0 0-4.633 4.628v.082a4.62 4.62 0 0 1 4.633-4.547 4.62 4.62 0 0 1 4.63 4.547v-.082a4.619 4.619 0 0 0-4.63-4.629zm0 0" fill="#fff" fill-opacity=".392"/><path d="M6.617 1.402a4.667 4.667 0 0 0-4.68 4.676 4.67 4.67 0 0 0 4.68 4.68 4.67 4.67 0 0 0 4.676-4.68 4.666 4.666 0 0 0-4.676-4.676zm0 .094A4.571 4.571 0 0 1 11.2 6.078a4.575 4.575 0 0 1-4.582 4.586 4.575 4.575 0 0 1-4.586-4.586 4.572 4.572 0 0 1 4.586-4.582zm0 0" fill="#212121"/><path d="M6.617 10.71a4.623 4.623 0 0 1-4.633-4.632v-.082a4.62 4.62 0 0 0 4.633 4.547 4.62 4.62 0 0 0 4.63-4.547v.082a4.622 4.622 0 0 1-4.63 4.633zm0 0" fill-opacity=".196"/><path d="M10.914 6.742a3.627 3.627 0 0 0-3.285 2.07 2.623 2.623 0 0 0-.684-.085 2.638 2.638 0 0 0-2.472 1.699 1.98 1.98 0 0 0-3.148 1.605c0 1.102.882 1.985 1.984 1.985.082 0 .16-.004.238-.012a.355.355 0 0 0 .09.012h7.277a3.631 3.631 0 0 0 3.64-3.637 3.631 3.631 0 0 0-3.64-3.637zm0 0" fill="url(#g)"/><path d="M10.914 6.742a3.627 3.627 0 0 0-3.285 2.07 2.623 2.623 0 0 0-.684-.085 2.638 2.638 0 0 0-2.472 1.699 1.98 1.98 0 0 0-3.148 1.605v.082a1.978 1.978 0 0 1 1.984-1.898c.433 0 .836.137 1.164.375a2.638 2.638 0 0 1 2.472-1.7 2.8 2.8 0 0 1 .684.087 3.627 3.627 0 0 1 3.285-2.07 3.628 3.628 0 0 1 3.637 3.554c.004-.027.004-.055.004-.082a3.631 3.631 0 0 0-3.64-3.637zm0 0" fill="#fff" fill-opacity=".392"/><path d="M14.55 10.305a3.627 3.627 0 0 1-3.636 3.562H3.637c-.032 0-.059-.008-.09-.015-.078.007-.156.015-.238.015a1.983 1.983 0 0 1-1.985-1.91v.074c0 1.102.883 1.985 1.985 1.985.082 0 .16-.004.238-.012a.355.355 0 0 0 .09.012h7.277a3.631 3.631 0 0 0 3.64-3.637c0-.027 0-.05-.003-.074zm0 0" fill-opacity=".235"/><path d="M10.914 6.742a3.627 3.627 0 0 0-3.285 2.07 2.623 2.623 0 0 0-.684-.085 2.638 2.638 0 0 0-2.472 1.699 1.98 1.98 0 0 0-3.148 1.605c0 1.102.882 1.985 1.984 1.985.082 0 .16-.004.242-.012a.305.305 0 0 0 .086.012h7.277a3.631 3.631 0 0 0 3.64-3.637 3.631 3.631 0 0 0-3.64-3.637zm0 0" fill="none" stroke-width=".09377353" stroke-linecap="round" stroke="#212121"/></svg>
